assets/icons/plus_filled.svg

<svg width="23" height="22" viewBox="0 0 23 22" fill="none" xmlns="http://www.w3.org/2000/svg">
<path fill-rule="evenodd" clip-rule="evenodd" d="M11.88 1.14624C6.43774 1.14624 2.02588 5.5581 2.02588 11.0004C2.02588 16.4427 6.43774 20.8546 11.88 20.8546C17.3224 20.8546 21.7342 16.4427 21.7342 11.0004C21.7342 5.5581 17.3224 1.14624 11.88 1.14624ZM12.7967 7.33374C12.7967 6.82748 12.3863 6.41707 11.88 6.41707C11.3738 6.41707 10.9634 6.82748 10.9634 7.33374V10.0837H8.21338C7.70712 10.0837 7.29671 10.4941 7.29671 11.0004C7.29671 11.5067 7.70712 11.9171 8.21338 11.9171H10.9634V14.6671C10.9634 15.1733 11.3738 15.5837 11.88 15.5837C12.3863 15.5837 12.7967 15.1733 12.7967 14.6671V11.9171H15.5467C16.053 11.9171 16.4634 11.5067 16.4634 11.0004C16.4634 10.4941 16.053 10.0837 15.5467 10.0837H12.7967V7.33374Z" fill="white"/>
</svg>

<svg xmlns="http://www.w3.org/2000/svg" width="23" height="22" fill="none" viewBox="0 0 23 22"><path fill="#fff" fill-rule="evenodd" d="M11.88 1.146c-5.442 0-9.854 4.412-9.854 9.854 0 5.443 4.412 9.855 9.854 9.855s9.854-4.412 9.854-9.855c0-5.442-4.412-9.854-9.854-9.854m.917 6.188a.917.917 0 0 0-1.834 0v2.75h-2.75a.917.917 0 0 0 0 1.833h2.75v2.75a.917.917 0 0 0 1.834 0v-2.75h2.75a.917.917 0 1 0 0-1.833h-2.75z" clip-rule="evenodd"/></svg>
